recipes/stride/icon.svg

<svg viewBox="0 0 128 128" xmlns="http://www.w3.org/2000/svg" xmlns:xlink="http://www.w3.org/1999/xlink"><linearGradient id="a" x1="76.007786%" x2="3.2055%" y1="30.816484%" y2="70.705195%"><stop offset=".18" stop-color="#0052cc"/><stop offset="1" stop-color="#2684ff"/></linearGradient><g fill="none" transform="translate(0 12.358621)"><path d="m35.9973001 0v20.6302865c0 28.5635693-14.3538103 39.5913952-32.61546434 41.2605729-1.92724814.193332-3.39149445 1.817423-3.38178778 3.7509612v33.7586506c-.00156431 1.0316148.42256 2.0183348 1.17259138 2.7280198.75003139.709685 1.75975392 1.079681 2.79161541 1.022941 45.72928593-2.325596 73.27206863-35.6341308 73.27206863-76.9884778h.1315139v-26.1629542z" fill="url(#a)"/><path d="m127.607834 97.7366785-48.3555805-97.7366785h-43.2892221l51.0764033 100.099914c.964241 1.877604 2.8985893 3.057966 5.010066 3.057202h32.2370543c1.291965-.013564 2.486099-.690467 3.160911-1.791781.674812-1.101315.735396-2.472155.160368-3.6286565z" fill="#2684ff"/></g></svg>

<svg viewBox="0 0 128 128" version="1.1" xmlns="http://www.w3.org/2000/svg" xmlns:xlink="http://www.w3.org/1999/xlink">
	<defs>
		<linearGradient x1="76.0077856%" y1="30.8164837%" x2="3.20549956%" y2="70.7051948%" id="linearGradient-1">
			<stop stop-color="#0052CC" offset="18%"></stop>
			<stop stop-color="#2684FF" offset="100%"></stop>
		</linearGradient>
	</defs>
	<g stroke="none" stroke-width="1" fill="none" fill-rule="evenodd">
		<g id="Web/loading">
			<g id="stride-blue">
				<g id="Stride-blue" transform="translate(0.000000, 12.358621)">
					<path d="M35.9973001,0 L35.9973001,20.6302865 C35.9973001,49.1938558 21.6434898,60.2216817 3.38183576,61.8908594 C1.45458762,62.0841914 -0.0096586852,63.7082824 4.79783111e-05,65.6418206 C4.79783111e-05,73.331291 4.79783111e-05,91.5046979 4.79783111e-05,99.4004712 C-0.00151632727,100.432086 0.422607976,101.418806 1.17263936,102.128491 C1.92267075,102.838176 2.93239328,103.208172 3.96425477,103.151432 C49.6935407,100.825836 77.2363234,67.5173012 77.2363234,26.1629542 L77.3678373,26.1629542 L77.3678373,0 L35.9973001,0 Z"
						  id="Shape" fill="url(#linearGradient-1)" fill-rule="nonzero"></path>
					<path d="M127.607834,97.7366785 L79.2522535,0 L35.9630314,0 L87.0394347,100.099914 C88.0036757,101.977518 89.938024,103.15788 92.0495007,103.157116 L124.286555,103.157116 C125.57852,103.143552 126.772654,102.466649 127.447466,101.365335 C128.122278,100.26402 128.182862,98.89318 127.607834,97.7366785 Z"
						  id="Shape" fill="#2684FF" fill-rule="nonzero"></path>
				</g>
			</g>
		</g>
	</g>
</svg>
